X:44
T:Cherokee Shuffle
M:4/4
L:1/8
K:A
FG|:A2 AB A2 AB| cB A2 F2 EF| A2 AB cd e2| fefg f2 fg|
  |a2 ab a2 af| efed cB A2| FGAc BA G2|1 A6 FG:|2 A6 e2||
  |:fefg aefe| cdef e2 e2| fefg ae f2| e6 e2|
  |fefg aefe| cdef e2 e2| fecB ABce| f2 fg f2 fg|
  | aegf edcB|1 A2 AB A2 e2:|2 A2 AB A2 FG||
